docs/.vuepress/public/svg/signpath.svg

<?xml version="1.0" encoding="UTF-8" standalone="no"?>
<!DOCTYPE svg PUBLIC "-//W3C//DTD SVG 1.1//EN" "http://www.w3.org/Graphics/SVG/1.1/DTD/svg11.dtd">
<svg width="100%" height="100%" viewBox="0 0 621 125" version="1.1" xmlns="http://www.w3.org/2000/svg"
    xmlns:xlink="http://www.w3.org/1999/xlink" xml:space="preserve" xmlns:serif="http://www.serif.com/"
    style="fill-rule:evenodd;clip-rule:evenodd;stroke-linejoin:round;stroke-miterlimit:2;">
    <rect x="0" y="0" width="621" height="124.6" style="fill:#fff;" />
    <path
        d="M106.3,0l-70.8,0l-35.5,61.4l35.4,61.4l70.9,0l35.4,-61.4l-35.4,-61.4Zm1.7,68.6c-0.7,1.6 -2.3,2.6 -4.1,2.6l-36.8,0c-2.5,0 -4.5,-2 -4.5,-4.5c-0,-2.5 2,-4.5 4.5,-4.5l26.8,0l-10.5,-11.9c-1.486,-1.675 -1.486,-4.225 -0,-5.9l10.5,-11.9l-44.3,-0l-0,71.2c-0,2.5 -2,4.5 -4.5,4.5c-2.5,-0 -4.5,-2 -4.5,-4.5l-0,-84.8c-0,-2.5 2,-4.5 4.5,-4.5c2.5,-0 4.5,2 4.5,4.5l-0,4.6l54.3,-0c1.8,-0 3.4,1 4.1,2.6c0.7,1.6 0.4,3.5 -0.7,4.8l-14.4,16.4l14.4,16.4c1.1,1.4 1.4,3.3 0.7,4.9Zm73.3,12.6c7.3,5.8 16,9.2 25.3,9.2c9.1,-0 15.5,-3.2 15.5,-10.4c-0,-6.2 -4,-8.7 -11.2,-11.4l-11.6,-4.2c-10.6,-3.9 -18.7,-9.6 -18.7,-22.7c-0,-14 12.2,-21.7 26.9,-21.7c9,-0 17.1,2.3 23.5,6.5l-0,13.9c-6.6,-5.1 -13.9,-8.6 -23.2,-8.6c-8.1,-0 -14,3.1 -14,9.6c-0,5.8 3.8,8.2 10.4,10.5l12.9,4.7c12.5,4.5 18.2,11.6 18.2,23.1c-0,14.5 -12.3,22.6 -28.6,22.6c-10.6,-0 -19.7,-3.1 -25.3,-7l-0.1,-14.1Zm72.1,-47.3c-4.3,-0 -8.1,-3.5 -8.1,-7.9c-0,-4.4 3.8,-7.9 8.1,-7.9c4.3,-0 8.1,3.5 8.1,7.9c-0,4.4 -3.8,7.9 -8.1,7.9Zm6.5,67.2l-13,-0l-0,-57.7l13,-0l-0,57.7Zm52.1,-5.7c-2.6,3.1 -8.1,6 -14.5,6c-17,-0 -26.6,-14.2 -26.6,-29.6c-0,-15.4 9.6,-29.6 26.6,-29.6c6.5,-0 11.9,2.9 14.5,6l-0,-4.7l13,-0l-0,52.9c-0,21 -16,28.2 -29.6,28.2c-7.7,-0 -14.5,-1.9 -19.2,-4.9l-0,-13.8c6,5.3 11.9,7.3 19.2,7.3c9.2,0 16.6,-5.5 16.6,-15.8l-0,-2Zm-0,-35c-2.2,-3.9 -6.9,-6.9 -12.3,-6.9c-10,-0 -15.7,7.7 -15.7,18.2c-0,10.5 5.7,18.2 15.7,18.2c5.5,0 10.1,-3 12.3,-6.9l-0,-22.6Zm27.9,-17l13,0l-0,5.5c3.1,-3.6 8.8,-6.8 15.6,-6.8c13.1,0 20.4,8.7 20.4,21.4l-0,37.5l-13,0l-0,-35.2c-0,-7.1 -3.5,-11.8 -10.9,-11.8c-5.6,0 -10.6,3.5 -12.1,9.2l-0,37.9l-13,0l-0,-57.7Zm78,27.9l-0,29.7l-13.5,0l-0,-79.7l30.8,0c16.5,0 27.3,8.6 27.3,25.1c-0,16.2 -10.8,24.9 -27.3,24.9l-17.3,0Zm17.1,-38.3l-17,0l-0,26.6l17,0c9.4,0 14.2,-5.6 14.2,-13.2c-0.1,-7.9 -4.9,-13.4 -14.2,-13.4Zm68,31.2c-0,-6.5 -5.2,-10.3 -13.2,-10.3c-6.2,0 -11.3,1.9 -16,5.1l-0,-11.9c3.8,-2.7 11,-4.9 18.3,-4.9c14.9,0 23.4,8.1 23.4,21.2l-0,37.8l-12.5,0l-0,-3.2c-1.9,1.9 -7.7,4.3 -14.2,4.3c-11.8,0 -21.6,-7 -21.6,-18.8c-0,-10.9 9.7,-18.6 22.5,-18.6c5.2,0 10.9,1.8 13.2,3.5l0.1,-4.2Zm-0,16.8c-1.4,-3.6 -6.5,-5.8 -11.7,-5.8c-5.8,0 -11.9,2.5 -11.9,8.2c-0,5.8 6.1,8.3 11.9,8.3c5.2,0 10.3,-2.2 11.7,-5.8l-0,-4.9Zm45.7,20.1l-13,0l-0,-46.9l-11.7,0l-0,-10.8l11.7,0l-0,-15.4l13,0l-0,15.5l13,0l-0,10.7l-13,0l-0,46.9Zm22.5,-84.4l13,0l-0,32.2c3.1,-3.6 8.8,-6.8 15.6,-6.8c13.1,0 20.4,8.7 20.4,21.4l-0,37.5l-13,0l-0,-35.2c-0,-7.1 -3.5,-11.8 -10.9,-11.8c-5.6,0 -10.7,3.5 -12.1,9.2l-0,37.9l-13,0l-0,-84.4Z"
        style="fill:#00b1e6;fill-rule:nonzero;" />
</svg>

<?xml version="1.0" encoding="UTF-8" standalone="no"?>
<!DOCTYPE svg PUBLIC "-//W3C//DTD SVG 1.1//EN" "http://www.w3.org/Graphics/SVG/1.1/DTD/svg11.dtd">
<svg width="100%" height="100%" viewBox="0 0 621 125" version="1.1" xmlns="http://www.w3.org/2000/svg"
    xmlns:xlink="http://www.w3.org/1999/xlink" xml:space="preserve" xmlns:serif="http://www.serif.com/"
    style="fill-rule:evenodd;clip-rule:evenodd;stroke-linejoin:round;stroke-miterlimit:2;">
    <path
        d="M620.2,31.25L620.2,93.75C620.2,110.997 606.197,125 588.95,125L31.25,125C14.003,125 0,110.997 0,93.75L0,31.25C0,14.003 14.003,0 31.25,0L588.95,0C606.197,0 620.2,14.003 620.2,31.25Z"
        style="fill:rgb(238,238,238);" />
    <path
        d="M106.3,0L35.5,0L0,61.4L35.4,122.8L106.3,122.8L141.7,61.4L106.3,0ZM108,68.6C107.3,70.2 105.7,71.2 103.9,71.2L67.1,71.2C64.6,71.2 62.6,69.2 62.6,66.7C62.6,64.2 64.6,62.2 67.1,62.2L93.9,62.2L83.4,50.3C81.914,48.625 81.914,46.075 83.4,44.4L93.9,32.5L49.6,32.5L49.6,103.7C49.6,106.2 47.6,108.2 45.1,108.2C42.6,108.2 40.6,106.2 40.6,103.7L40.6,18.9C40.6,16.4 42.6,14.4 45.1,14.4C47.6,14.4 49.6,16.4 49.6,18.9L49.6,23.5L103.9,23.5C105.7,23.5 107.3,24.5 108,26.1C108.7,27.7 108.4,29.6 107.3,30.9L92.9,47.3L107.3,63.7C108.4,65.1 108.7,67 108,68.6ZM181.3,81.2C188.6,87 197.3,90.4 206.6,90.4C215.7,90.4 222.1,87.2 222.1,80C222.1,73.8 218.1,71.3 210.9,68.6L199.3,64.4C188.7,60.5 180.6,54.8 180.6,41.7C180.6,27.7 192.8,20 207.5,20C216.5,20 224.6,22.3 231,26.5L231,40.4C224.4,35.3 217.1,31.8 207.8,31.8C199.7,31.8 193.8,34.9 193.8,41.4C193.8,47.2 197.6,49.6 204.2,51.9L217.1,56.6C229.6,61.1 235.3,68.2 235.3,79.7C235.3,94.2 223,102.3 206.7,102.3C196.1,102.3 187,99.2 181.4,95.3L181.3,81.2ZM253.4,33.9C249.1,33.9 245.3,30.4 245.3,26C245.3,21.6 249.1,18.1 253.4,18.1C257.7,18.1 261.5,21.6 261.5,26C261.5,30.4 257.7,33.9 253.4,33.9ZM259.9,101.1L246.9,101.1L246.9,43.4L259.9,43.4L259.9,101.1ZM312,95.4C309.4,98.5 303.9,101.4 297.5,101.4C280.5,101.4 270.9,87.2 270.9,71.8C270.9,56.4 280.5,42.2 297.5,42.2C304,42.2 309.4,45.1 312,48.2L312,43.5L325,43.5L325,96.4C325,117.4 309,124.6 295.4,124.6C287.7,124.6 280.9,122.7 276.2,119.7L276.2,105.9C282.2,111.2 288.1,113.2 295.4,113.2C304.6,113.2 312,107.7 312,97.4L312,95.4ZM312,60.4C309.8,56.5 305.1,53.5 299.7,53.5C289.7,53.5 284,61.2 284,71.7C284,82.2 289.7,89.9 299.7,89.9C305.2,89.9 309.8,86.9 312,83L312,60.4ZM339.9,43.4L352.9,43.4L352.9,48.9C356,45.3 361.7,42.1 368.5,42.1C381.6,42.1 388.9,50.8 388.9,63.5L388.9,101L375.9,101L375.9,65.8C375.9,58.7 372.4,54 365,54C359.4,54 354.4,57.5 352.9,63.2L352.9,101.1L339.9,101.1L339.9,43.4ZM417.9,71.3L417.9,101L404.4,101L404.4,21.3L435.2,21.3C451.7,21.3 462.5,29.9 462.5,46.4C462.5,62.6 451.7,71.3 435.2,71.3L417.9,71.3ZM435,33L418,33L418,59.6L435,59.6C444.4,59.6 449.2,54 449.2,46.4C449.1,38.5 444.3,33 435,33ZM503,64.2C503,57.7 497.8,53.9 489.8,53.9C483.6,53.9 478.5,55.8 473.8,59L473.8,47.1C477.6,44.4 484.8,42.2 492.1,42.2C507,42.2 515.5,50.3 515.5,63.4L515.5,101.2L503,101.2L503,98C501.1,99.9 495.3,102.3 488.8,102.3C477,102.3 467.2,95.3 467.2,83.5C467.2,72.6 476.9,64.9 489.7,64.9C494.9,64.9 500.6,66.7 502.9,68.4L503,64.2ZM503,81C501.6,77.4 496.5,75.2 491.3,75.2C485.5,75.2 479.4,77.7 479.4,83.4C479.4,89.2 485.5,91.7 491.3,91.7C496.5,91.7 501.6,89.5 503,85.9L503,81ZM548.7,101.1L535.7,101.1L535.7,54.2L524,54.2L524,43.4L535.7,43.4L535.7,28L548.7,28L548.7,43.5L561.7,43.5L561.7,54.2L548.7,54.2L548.7,101.1ZM571.2,16.7L584.2,16.7L584.2,48.9C587.3,45.3 593,42.1 599.8,42.1C612.9,42.1 620.2,50.8 620.2,63.5L620.2,101L607.2,101L607.2,65.8C607.2,58.7 603.7,54 596.3,54C590.7,54 585.6,57.5 584.2,63.2L584.2,101.1L571.2,101.1L571.2,16.7Z"
        style="fill:rgb(0,177,230);fill-rule:nonzero;" />
</svg>
